X:1
T:Title
%%score { ( 1 3 ) | ( 2 4 ) }
L:1/8
M:4/4
K:Eb
V:1 treble nm="Grand Piano"
V:3 treble 
V:2 bass 
V:4 bass 
V:1
 z4 z2[Q:1/4=100] [EG]>[FA] | [GB]2 [Gc]2 [Gd]2 [Ge]2 | G6 z2 | [GB]2 [Gc]2 [Gd]2 [Ge]2 | A6 z2 | %5
 [FA]>[=EG] [FA]>[EG] [FA]2 [Ad]>[DAc] |[M:3/4] [GB]>[_G=A] [=GB]>[_GA] [=GB]2 |[M:1/4] [EG]>[EG] | %8
[M:4/4] [DB]>[DB] [DF]>[EG] [DA]2 D2 |[M:7/8] F- F3 E3 |[M:5/16] [Ge]3/2[Gc] | %11
[M:4/4] [Ad]2 [DAc]>[DAc] [DFA]2 [DAd]>[DAd] | [EAc]2 [EGB]2 [B,EG]2 [B,GB]>[B,GB] | %13
 [GB]2 [FA]>[FA] [DF]2 [Ad]>[DAd] |[M:17/16] [Ac]-<[Ac][GB]-<[GB][EG]-<[EG][Ge]3/2[Gc] | %15
[M:4/4] [Ad]2 [DAc]>[DAc] [DFA]2 [DAd]>[DAd] | [Ac]2 [GB]2 G2 B>B | [DB]2 [DF]>[EG] [DA]2 D2 | %18
[M:3/4] F4 E2 |] %19
V:2
 z4 z2 [E,B,]>[E,B,] | [E,E]2 [E,E]2 [E,B,]2 [E,B,]2 | B,2 z2 E2 z2 | %3
 [E,E]2 [E,E]2 [E,B,]2 [E,B,]2 | B,2 z2 =D2 z2 | %5
 [B,,B,]>[B,,B,] [B,,B,]>[B,,B,] [B,,B,]2 [B,,B,]>B,, |[M:3/4] [E,E]>[E,E] [E,E]>[E,E] [E,E]2 | %7
[M:1/4] [E,B,]>[E,B,] |[M:4/4] [B,,B,]>[B,,F,] [B,,A,]>[B,,G,] [B,,F,]2 [B,,F,B,]2 | %9
[M:7/8] [B,,A,B,]- [B,,A,B,]3 [E,G,B,]3 |[M:5/16] [E,B,]3/2[E,B,] | %11
[M:4/4] [F,B,]2 F,>F, B,2 B,,>B,, | E,2 E,2 E,2 E,>E, | %13
 [B,,B,]2 [B,,B,]>[B,,B,] [B,,B,]2 [B,,B,]>B,, | %14
[M:17/16] [E,E]-<[E,E][E,E]-<[E,E][E,B,]-<[E,B,][E,B,]3/2[E,B,] | %15
[M:4/4] [F,B,]2 F,>F, B,2 B,,>B,, | [E,E]2 [E,E]2 [E,B,E]2 [E,G,E]>[E,G,E] | %17
 [B,,F,]2 [B,,A,]>[B,,G,] [B,,F,]2 [B,,F,B,]2 |[M:3/4] [B,,A,B,]4 [E,G,B,]2 |] %19
V:3
 x8 | x8 | z z/ B,/- B,4 [B,EG]>[B,FA] | x8 | z z/ B,/- B,4 [DF]>[EG] | x8 |[M:3/4] x6 | %7
[M:1/4] x2 |[M:4/4] x8 |[M:7/8] x7 |[M:5/16] x5/2 |[M:4/4] x8 | x8 | x8 |[M:17/16] x17/2 | %15
[M:4/4] x8 | x8 | x8 |[M:3/4] x6 |] %19
V:4
 x8 | x8 | [E,E]2- [E,-CE-]>[E,-DE] E,->[E,F] E,>E, | x8 | %4
 [F,D]2- [F,-CD-]>[F,-_DD] F,->[F,E] [B,,B,]>[B,,B,] | x8 |[M:3/4] x6 |[M:1/4] x2 |[M:4/4] x8 | %9
[M:7/8] x7 |[M:5/16] x5/2 |[M:4/4] x8 | x8 | x8 |[M:17/16] x17/2 |[M:4/4] x8 | x8 | x8 | %18
[M:3/4] x6 |] %19

